X:1
T:Led by the Star
T:Charles Hutchinson Gabriel
T:Led by the Star
T:Public Domain
T:Public Domain
T:Public Domain
C:Charles Hutchinson Gabriel
Z:Public Domain
%%score ( 1 2 ) ( 3 4 )
L:1/8
M:4/4
K:Db
V:1 treble 
V:2 treble 
V:3 bass 
V:4 bass 
V:1
 [FA][FA] | [Fd]2 [Gd]2 [Fd]2 [DF][DF] | [FA]2 [GA]2 [FA]2 [Dd][Dd] | [Ec]2 [GB]2 [FA]2 [EG]2 | %4
w: 1.~When the|King was born, on that|Christ- mas morn, In the|hum- ble Beth- l’hem|
w: 2.~So they|went their way, on that|Christ- mas day, Seek- ing|out the new- born|
 [DF]6 [FA][FA] | [Fd]2 [Gd]2 [Fd]2 [DF][DF] | [FA]2 [GA]2 [FA]2 [FB][FB] | %7
w: town, O- ver|lands a- far shone the|Christ- mas Star, Fling- ing|
w: King, Bear- ing|gifts so rare for the|Christ Child fair, As the|
 [Ec]2 [Ae]2 [=Ge]2 [DG]2 | [CA]6 [FA]>[DF] | [EG]2 [Gc]2 [Gc]2 [EG][CE] | %10
w: rays of glo- ry|down. There were|wise men three, o- ver|
w: of- f’ring they would|bring. And they|came at last, with their|
 [DF]2 [Fd]2 [Fd]2 [FA]>[FA] | [GB]2 [AB]2 [GB]2 [=GB]2 | (A2 =G2 A2) [Ec]>[Ec] | %13
w: hill and lea, Who be-|held the prom- ised|sign; * * But with|
w: jour- ney past, And they|knelt a- round His|bed, * * And the|
 [Dd]2 [Gd]2 [Fd]2 [DF]2 | [CG]2 [DA]2 [GB]2 [Ed]>[Ed] | [Ec]2 [Ec]2 [Fc]2 [Gc]2 | [Fd]6 z2 | %17
w: they knew its mean-|ing true Told the Christ|Child’s joy di- vine.|Led|
w: mas Star they’d fol-|lowed far Laid a crown|on ev- ery head.||
"^Refrain" (G2 G>G G2) c>B | (F>F FF [DF]2) [DF]2 | [EA]2 [EA]2 [CE]2 [GB][GB] | %20
w: by * * * the Star,|wise * * * * men|from their homes a- far,|
w: |||
 [FA]2 [FA]2 [DF]4 | (F2 G>A G2) [Gc]>[GB] | (F2 G2 A2) [FA]2 | [GB]2 [=GB]2 [Ac]2 [_Gc]2 | %24
w: Seek- ing the|Child, * * * Whom men|an- * * gels||
w: ||||
 [Fd]6 |] %25
w: |
w: |
V:2
 x2 | x8 | x8 | x8 | x8 | x8 | x8 | x8 | x8 | x8 | x8 | x8 | e6 x2 | x8 | x8 | x8 | x8 | d6 x2 | %18
w: ||||||||||||joy|||||The|
w: ||||||||||||Christ-||||||
 A4 x4 | x8 | x8 | d6 x2 | A6 x2 | x8 | x6 |] %25
w: came|||and|sing.|||
w: |||||||
V:3
 [D,D][D,D] | [D,A,]2 [D,B,]2 [D,A,]2 [D,A,][D,A,] | [D,D]2 [A,,C]2 [D,D]2 [F,A,][F,A,] | %3
w: ~ ~|~ ~ ~ ~ ~|~ ~ ~ ~ ~|
 A,2 A,2 [A,,A,]2 [A,,A,]2 | [D,A,]6 [D,D][D,D] | [D,A,]2 [D,B,]2 [D,A,]2 [D,A,][D,A,] | %6
w: ~ ~ ~ ~|~ ~ ~|~ ~ ~ ~ ~|
 [D,D]2 [A,,C]2 [D,D]2 [D,D][D,A,] | [E,A,]2 [E,C]2 [E,B,]2 [E,B,]2 | [A,,A,]6 [A,,A,]>[A,,A,] | %9
w: ~ ~ ~ ~ ~|~ ~ ~ ~|~ ~ ~|
 [A,,A,]2 [A,,A,]2 [A,,A,]2 [A,,A,][A,,A,] | [D,A,]2 [D,A,]2 [D,A,]2 [D,D]>[D,D] | %11
w: ~ ~ ~ ~ ~|~ ~ ~ ~ ~|
 [G,D]2 [F,=D]2 [E,E]2 [=D,E]2 | ([C,E]2 [B,,D]2 [A,,C]2) [G,A,]>[G,A,] | %13
w: ~ ~ ~ ~|~ * * ~ ~|
 [F,A,]2 [E,A,]2 [D,A,]2 [D,A,]2 | [E,A,]2 [F,D]2 [G,D]2 [=G,B,]>[G,B,] | %15
w: ~ ~ ~ ~|~ ~ ~ ~ ~|
 A,2 [G,A,]2 [F,A,]2 [E,A,]2 | [D,A,]6 z2 | [G,B,]2 [G,B,]>[G,B,] [G,B,]2 z2 | %18
w: ~ ~ ~ Led|the|Star, by the Christ-|
 [D,D]>[D,D] [D,D][D,D] [D,A,]2 [D,A,]2 | [A,,C]2 [A,,C]2 [A,,A,]2 [A,,C][A,,C] | %20
w: mas Star, ~ ~ ~ ~|~ ~ ~ ~ ~|
 [D,D]2 [D,D]2 [D,A,]4 | [D,A,]2 [E,A,]>[F,D] [G,B,]2 [G,B,]>[G,D] | [D,D]2 [E,C]2 [F,D]2 [D,D]2 | %23
w: Seek- ing the|Child who was born a king,||
 [G,D]2 [E,E]2 [A,E]2 A,2 | [D,A,]6 |] %25
w: ||
V:4
 x2 | x8 | x8 | A,2 A,2 x4 | x8 | x8 | x8 | x8 | x8 | x8 | x8 | x8 | x8 | x8 | x8 | A,2 x6 | x8 | %17
w: |||~ ~||||||||||||by||
 x8 | x8 | x8 | x8 | x8 | x8 | x6 A,2 | x6 |] %25
w: ||||||||

